tools/download-figma-icons/icons/solid/pkw.svg

<svg width="24" height="24" viewBox="0 0 24 24" fill="none" xmlns="http://www.w3.org/2000/svg">
<path d="M22.2 11.31L18.0825 10.5525L16.23 8.715C15.1275 7.695 13.8 6.75 11.6325 6.75H9.6C6.405 6.75 3.6075 8.7525 2.9925 9.225L1.335 9.735C0.5475 9.9825 0 10.7475 0 11.61V14.1375C0 15.0525 0.6 15.84 1.455 16.0425L3.1575 16.44H3.2325C3.6375 17.355 4.56 18 5.625 18C6.6675 18 7.56 17.385 7.9875 16.5H16.0125C16.44 17.385 17.3325 18 18.375 18C19.4175 18 20.31 17.385 20.7375 16.5H22.515C23.3325 16.5 24 15.8025 24 14.9475V13.62C24 12.51 23.25 11.5425 22.2 11.31ZM11.6325 8.25C13.2 8.25 14.1675 8.85 15.195 9.8025L15.84 10.44L11.6175 10.305L11.355 8.25H11.6325ZM9.6 8.25H9.84L10.1025 10.26L6.255 10.1325C6.705 9.33 7.6575 8.25 9.6 8.25ZM5.625 16.5C5.0025 16.5 4.5 15.9975 4.5 15.375C4.5 14.7525 5.0025 14.25 5.625 14.25C6.2475 14.25 6.75 14.7525 6.75 15.375C6.75 15.9975 6.2475 16.5 5.625 16.5ZM18.375 16.5C17.7525 16.5 17.25 15.9975 17.25 15.375C17.25 14.7525 17.7525 14.25 18.375 14.25C18.9975 14.25 19.5 14.7525 19.5 15.375C19.5 15.9975 18.9975 16.5 18.375 16.5Z" fill="black"/>
</svg>

<svg xmlns="http://www.w3.org/2000/svg" width="24" height="24" fill="none" viewBox="0 0 24 24"><path fill="currentColor" d="m22.2 11.31-4.117-.758-1.853-1.837c-1.103-1.02-2.43-1.965-4.597-1.965H9.6c-3.195 0-5.992 2.002-6.607 2.475l-1.658.51C.548 9.983 0 10.748 0 11.61v2.528c0 .915.6 1.702 1.455 1.905l1.703.397h.075A2.62 2.62 0 0 0 5.624 18a2.63 2.63 0 0 0 2.363-1.5h8.024c.428.885 1.32 1.5 2.363 1.5a2.63 2.63 0 0 0 2.363-1.5h1.777c.817 0 1.485-.697 1.485-1.553V13.62c0-1.11-.75-2.077-1.8-2.31M11.633 8.25c1.567 0 2.535.6 3.562 1.553l.645.637-4.222-.135-.263-2.055zm-2.033 0h.24l.262 2.01-3.847-.127C6.705 9.33 7.657 8.25 9.6 8.25M5.625 16.5A1.123 1.123 0 0 1 4.5 15.375c0-.623.503-1.125 1.125-1.125s1.125.502 1.125 1.125S6.247 16.5 5.625 16.5m12.75 0a1.123 1.123 0 0 1-1.125-1.125c0-.623.503-1.125 1.125-1.125s1.125.502 1.125 1.125-.503 1.125-1.125 1.125"/></svg>
